StripePaymentSheet/StripePaymentSheet/Resources/StripePaymentSheet.xcassets/Mandates/bacsdd_logo.imageset/bacsdd_logo.svg

<svg fill="none" height="20" viewBox="0 0 62 20" width="62" xmlns="http://www.w3.org/2000/svg"><path clip-rule="evenodd" d="m29.0563 4.19902h3.2033s3.1718-.064 3.1398 2.82032c-.0316 2.14768-3.0751 2.468-3.0751 2.468h-3.2677zm9.5834 10.35338c.0899.4195.3932.8818 1.405.9293 1.3453.0317 2.1143-.4813 2.1143-.4813v.9936s-1.4736.353-2.1786.353c-.7366 0-2.9152-.1606-2.9152-2.1796 0-1.6343 1.7941-2.1474 2.8189-2.1474 1.7941.064 2.659.7054 2.627 2.532 0 .0264-2.9517.0067-3.8714.0004zm.0042-.802h2.4579s.0001-.9294-1.1854-.9294c-.8916 0-1.1833.481-1.2725.9294zm7.7756-1.0036c.3556-.386.9527-.6951 1.9543-.6951 1.9864 0 2.3069 1.6667 2.2749 2.1153-.032.4487-.1922 2.1473-2.4984 2.1473-.8712 0-1.4043-.2974-1.7305-.6666v.5383h-1.5699v-5.7693h1.5699v2.3301zm1.346 2.6702c.9288-.0323 1.3453-.833 1.3453-1.2176 0-.3847-.2246-1.186-1.41-1.186-.9197 0-1.1998.6951-1.2813 1.0348v.418c.0808.3464.3623.9508 1.346.9508zm13.5511-.16.0317.8977s-.7367.16-1.2171.16-1.7305-.2883-1.7305-1.5067v-1.859h-1.3129v-.833h1.3129v-.9936h1.6022v.9936h1.3137v.833h-1.3137v1.603s0 .8014.6411.8014c.6403 0 .6726-.0964.6726-.0964zm-4.8695-10.19265h1.858v4.45499h1.5692v-4.45499h1.8904v-.92968h-5.3176zm-.641.22433.1922-.92968s-.8009-.35232-2.2102-.35232c-1.3776 0-3.5878.76934-3.5878 2.85267 0 2.05134 2.3384 2.75633 3.78 2.75633s1.9221-.22433 1.9221-.22433l-.16-1.02567s-.641.19234-1.7304.19234c-1.0572-.032-2.1456-.86533-2.1456-1.79466.0317-.83333.9925-1.76301 2.2426-1.76301.9604 0 1.6971.28833 1.6971.28833zm-14.1599-1.12166s2.627-.12799 2.627 1.41034c0 1.31434-1.5052 1.41033-1.5052 1.41033s.4161.064.6087.35232c.1599.25633 1.2171 2.17968 1.2171 2.17968h-1.6023s-.2562-.32067-.3844-.54466c-.096-.22433-.3845-.70534-.3845-.70534s-.2239-.80133-.9932-.80133c-.0193 0-.3321-.01196-.5767-.0211v2.07243h-1.5375v-5.35267zm-.9931 2.40401h.8332s1.1531-.06435 1.2171-.76934c.0323-.673-1.1208-.76934-1.1208-.76934h-.9295zm6.439.83333h2.5631v-.99367h-2.5631v-1.218h2.7876v-1.02567h-4.3564v5.35267h4.3888v-.96167h-2.8196v-1.15366zm6.2469 4.10234h1.5698v-1.09h-1.5698zm0 4.6797h1.5698v-4.0704h-1.5698zm-17.1063-6.66671h1.5375v-5.35267h-1.5375zm-7.1764 1.34631h3.2033s3.1718-.0647 3.1398 2.8204c-.0316 2.1473-3.0751 2.4683-3.0751 2.4683h-3.2677zm1.5699 4.295h1.0251s2.1143-.1283 2.1143-1.763c0-1.6346-2.2426-1.795-2.2426-1.795h-.8968zm0-6.66698h1.0251s2.1143-.16033 2.1143-1.76301c0-1.66666-2.2426-1.79465-2.2426-1.79465h-.8968zm-15.954-1.10865v10.72433s-6.21517-1.122-6.21517-5.3847c.00035-3.39975 4.60107-4.89835 6.21517-5.33963zm0-.20007c-3.7354-.27039-12.20545 1.48137-12.20545 5.3151 0 2.4996 4.48507 6.154 11.78905 6.25.2882 0 8.5853-.3207 8.4574-9.23106-.1076-7.48383-5.706-8.794656-7.4962-9.022855v-.4560471c7.137.4532351 12.7502 4.7475421 12.7502 9.9595621 0 5.513-6.2792 10-13.9996 10-7.72042 0-13.9676-4.4873-13.9676-10 0-5.51266 6.24683-10 13.9676-10 .2365 0 .4716.0042205.705.0126593z" fill="#6a7383" fill-rule="evenodd"/></svg>

<svg width="62" height="20" viewBox="0 0 62 20" fill="none" xmlns="http://www.w3.org/2000/svg">
<path fill-rule="evenodd" clip-rule="evenodd" d="M29.0563 4.19902H32.2596C32.2596 4.19902 35.4314 4.13502 35.3994 7.01934C35.3678 9.16702 32.3243 9.48734 32.3243 9.48734H29.0566L29.0563 4.19902ZM38.6397 14.5524C38.7296 14.9719 39.0329 15.4342 40.0447 15.4817C41.39 15.5134 42.159 15.0004 42.159 15.0004V15.994C42.159 15.994 40.6854 16.347 39.9804 16.347C39.2438 16.347 37.0652 16.1864 37.0652 14.1674C37.0652 12.5331 38.8593 12.02 39.8841 12.02C41.6782 12.084 42.5431 12.7254 42.5111 14.552C42.5111 14.5784 39.5594 14.5587 38.6397 14.5524ZM38.6439 13.7504H41.1018C41.1018 13.7504 41.1019 12.821 39.9164 12.821C39.0248 12.821 38.7331 13.302 38.6439 13.7504ZM46.4195 12.7468C46.7751 12.3608 47.3722 12.0517 48.3738 12.0517C50.3602 12.0517 50.6807 13.7184 50.6487 14.167C50.6167 14.6157 50.4565 16.3143 48.1503 16.3143C47.2791 16.3143 46.746 16.0169 46.4198 15.6477V16.186H44.8499V10.4167H46.4198V12.7468H46.4195ZM47.7655 15.417C48.6943 15.3847 49.1108 14.584 49.1108 14.1994C49.1108 13.8147 48.8862 13.0134 47.7008 13.0134C46.7811 13.0134 46.501 13.7085 46.4195 14.0482V14.4662C46.5003 14.8126 46.7818 15.417 47.7655 15.417ZM61.3166 15.257L61.3483 16.1547C61.3483 16.1547 60.6116 16.3147 60.1312 16.3147C59.6508 16.3147 58.4007 16.0264 58.4007 14.808V12.949H57.0878V12.116H58.4007V11.1224H60.0029V12.116H61.3166V12.949H60.0029V14.552C60.0029 14.552 60.0029 15.3534 60.644 15.3534C61.2843 15.3534 61.3166 15.257 61.3166 15.257ZM56.4471 5.06435H58.3051V9.51934H59.8743V5.06435H61.7647V4.13467H56.4471V5.06435ZM55.8061 5.28868L55.9983 4.359C55.9983 4.359 55.1974 4.00668 53.7881 4.00668C52.4105 4.00668 50.2003 4.77602 50.2003 6.85935C50.2003 8.91069 52.5387 9.61568 53.9803 9.61568C55.4219 9.61568 55.9024 9.39135 55.9024 9.39135L55.7424 8.36568C55.7424 8.36568 55.1014 8.55802 54.012 8.55802C52.9548 8.52602 51.8664 7.69269 51.8664 6.76336C51.8981 5.93003 52.8589 5.00035 54.109 5.00035C55.0694 5.00035 55.8061 5.28868 55.8061 5.28868ZM41.6462 4.16702C41.6462 4.16702 44.2732 4.03903 44.2732 5.57736C44.2732 6.8917 42.768 6.98769 42.768 6.98769C42.768 6.98769 43.1841 7.05169 43.3767 7.34001C43.5366 7.59634 44.5938 9.51969 44.5938 9.51969H42.9915C42.9915 9.51969 42.7353 9.19902 42.6071 8.97503C42.5111 8.7507 42.2226 8.26969 42.2226 8.26969C42.2226 8.26969 41.9987 7.46836 41.2294 7.46836C41.2101 7.46836 40.8973 7.4564 40.6527 7.44726V9.51969H39.1152V4.16702H41.6462ZM40.6531 6.57103H41.4863C41.4863 6.57103 42.6394 6.50668 42.7034 5.80169C42.7357 5.12869 41.5826 5.03235 41.5826 5.03235H40.6531V6.57103ZM47.0921 7.40436H49.6552V6.41069H47.0921V5.19269H49.8797V4.16702H45.5233V9.51969H49.9121V8.55802H47.0925V7.40436H47.0921ZM53.339 11.5067H54.9088V10.4167H53.339V11.5067ZM53.339 16.1864H54.9088V12.116H53.339V16.1864ZM36.2327 9.51969H37.7702V4.16702H36.2327V9.51969ZM29.0563 10.866H32.2596C32.2596 10.866 35.4314 10.8013 35.3994 13.6864C35.3678 15.8337 32.3243 16.1547 32.3243 16.1547H29.0566L29.0563 10.866ZM30.6262 15.161H31.6513C31.6513 15.161 33.7656 15.0327 33.7656 13.398C33.7656 11.7634 31.523 11.603 31.523 11.603H30.6262V15.161ZM30.6262 8.49402H31.6513C31.6513 8.49402 33.7656 8.33369 33.7656 6.73101C33.7656 5.06435 31.523 4.93636 31.523 4.93636H30.6262V8.49402ZM14.6722 7.38537V18.1097C14.6722 18.1097 8.45703 16.9877 8.45703 12.725C8.45738 9.32525 13.0581 7.82665 14.6722 7.38537ZM14.6722 7.1853C10.9368 6.91491 2.46675 8.66667 2.46675 12.5004C2.46675 15 6.95182 18.6544 14.2558 18.7504C14.544 18.7504 22.8411 18.4297 22.7132 9.51934C22.6056 2.03551 17.0072 0.724684 15.217 0.496485V0.0404379C22.354 0.493673 27.9672 4.78798 27.9672 10C27.9672 15.513 21.688 20 13.9676 20C6.24718 20 0 15.5127 0 10C0 4.48734 6.24683 0 13.9676 0C14.2041 0 14.4392 0.0042205 14.6726 0.0126593L14.6722 7.1853Z" fill="#6A7383"/>
</svg>
